deployments/warp_routes/weETHs/logo.svg

<svg width="60" height="60" viewBox="0 0 60 60" fill="none" xmlns="http://www.w3.org/2000/svg">
<rect width="60" height="60" rx="30" fill="#0E0B31"/>
<path fill-rule="evenodd" clip-rule="evenodd" d="M44.413 43.8685C44.4166 43.894 44.4181 43.9202 44.4188 43.9464C44.4195 44.1501 44.3148 44.3397 44.1413 44.4465L30.2445 53.0156C30.0566 53.1312 29.8202 53.1319 29.633 53.0163L15.8484 44.554C15.6749 44.4472 15.5694 44.2583 15.5701 44.0547C15.5701 44.0372 15.5708 44.0191 15.573 44.0016C15.5708 43.9828 15.5701 43.9646 15.5701 43.9458L15.5692 33.3731C15.5692 33.3603 15.57 33.3475 15.5707 33.3354C15.5606 33.1822 15.6111 33.0269 15.7195 32.9066C15.9046 32.7016 16.2074 32.6546 16.4452 32.793L29.9906 40.6543L43.4111 32.869C43.4328 32.8555 43.4559 32.8448 43.479 32.8347C43.5773 32.7587 43.7002 32.7137 43.8346 32.7137C44.1562 32.7137 44.4179 32.9752 44.4179 33.2971L44.4188 43.7865C44.4188 43.8147 44.4166 43.8416 44.413 43.8685ZM16.7366 43.023L20.7405 40.6039L16.7359 35.0924L16.7366 43.023ZM21.4287 41.5516C20.3178 42.2224 17.2751 44.0607 17.2751 44.0607L28.063 50.6839L21.4287 41.5516ZM32.0006 50.5623L42.7138 43.9559L38.5743 41.467L32.0006 50.5623ZM39.2601 40.5179L43.2521 42.9181L43.2515 34.9949L39.2601 40.5179ZM29.6979 41.8333L18.2465 35.1865L29.99 51.352L41.6246 35.2537L30.2834 41.8333C30.1027 41.9381 29.8786 41.9381 29.6979 41.8333ZM16.1328 30.5353C15.8198 30.5246 15.569 30.2678 15.569 29.9519L15.5679 16.2094C15.5679 16.1751 15.5708 16.1415 15.5766 16.1092C15.5708 16.0776 15.5679 16.0454 15.5679 16.0125C15.5671 15.8088 15.6726 15.6193 15.8461 15.5131L29.7436 6.98969C29.9301 6.87476 30.1657 6.87477 30.3522 6.98904L44.1368 15.4049C44.311 15.5111 44.4165 15.7006 44.4166 15.9042C44.4166 15.913 44.4159 15.9211 44.4159 15.9298C44.4159 15.9385 44.4166 15.9473 44.4166 15.9567L44.4177 29.88C44.4177 30.126 44.2645 30.337 44.0491 30.4224L30.2715 38.0014C30.0966 38.0975 29.8841 38.0975 29.7092 38.0014L16.1328 30.5353ZM16.7345 17.0415L16.7354 28.0995L21.6915 20.0218L16.7345 17.0415ZM43.2501 16.9366L38.2473 19.9592L43.251 28.1136L43.2501 16.9366ZM37.6372 18.9645C38.9201 18.1895 42.7094 15.9002 42.7094 15.9002L31.5919 9.11231L37.6372 18.9645ZM28.3062 9.23936L17.275 16.0051L22.3014 19.0277L28.3062 9.23936ZM17.1005 29.7362L29.9903 36.8245L42.8774 29.7355L29.988 8.72919L17.1005 29.7362Z" fill="#B6FF3E"/>
<circle cx="29.9949" cy="29.9949" r="27.675" stroke="#120370" stroke-width="1.05"/>
<circle cx="29.9949" cy="29.9949" r="27.675" stroke="url(#paint0_linear_2142_61194)" stroke-width="1.05"/>
<defs>
<linearGradient id="paint0_linear_2142_61194" x1="29.5712" y1="57.2114" x2="41.5282" y2="9.12662" gradientUnits="userSpaceOnUse">
<stop stop-color="#29BCFA"/>
<stop offset="0.43" stop-color="#6464E4"/>
<stop offset="1" stop-color="#B45AFA"/>
</linearGradient>
</defs>
</svg>

<svg xmlns="http://www.w3.org/2000/svg" fill="none" viewBox="0 0 60 60"><rect width="60" height="60" fill="#0E0B31" rx="30"/><path fill="#B6FF3E" fill-rule="evenodd" d="M44.4 43.9c0 .3 0 .4-.3.5L30.2 53h-.6l-13.8-8.4a.6.6 0 0 1-.2-.6V33.3a.6.6 0 0 1 .8-.6L30 40.7l13.4-7.8.4-.2c.4 0 .6.3.6.6v10.5ZM16.7 43l4-2.4-4-5.5v8Zm4.7-1.4L17.3 44 28 50.7l-6.7-9.1Zm10.6 9L42.7 44l-4.1-2.5-6.6 9Zm7.3-10 4 2.3v-8l-4 5.6Zm-9.6 1.2-11.5-6.6L30 51.4l11.6-16.1-11.3 6.5h-.6ZM16.1 30.5a.6.6 0 0 1-.5-.5V16c0-.2 0-.4.2-.5l14-8.5h.6L44 15.4c.2.1.3.3.3.5v14c0 .2-.1.4-.4.5L30.3 38h-.6l-13.6-7.5Zm.6-13.5v11.1l5-8-5-3Zm26.6 0-5 3 5 8.1V17Zm-5.7 2 5.1-3.1-11.1-6.8 6 9.9Zm-9.3-9.8-11 6.8 5 3 6-9.8ZM17.1 29.7 30 36.8l12.9-7-13-21-12.8 21Z" clip-rule="evenodd"/><circle cx="30" cy="30" r="27.7" stroke="#120370" stroke-width="1.1"/><circle cx="30" cy="30" r="27.7" stroke="url(#a)" stroke-width="1.1"/><defs><linearGradient id="a" x1="29.6" x2="41.5" y1="57.2" y2="9.1" gradientUnits="userSpaceOnUse"><stop stop-color="#29BCFA"/><stop offset=".4" stop-color="#6464E4"/><stop offset="1" stop-color="#B45AFA"/></linearGradient></defs></svg>
